Sources/FrostedUI/Resources/Icons.xcassets/receipt12.imageset/receipt-12.svg

<svg width="12" height="12" viewBox="0 0 12 12" fill="none" xmlns="http://www.w3.org/2000/svg" data-fui-icon="true">
  <path
    d="M10.25 0C10.6642 0 11 0.335786 11 0.75V11C11 11.2539 10.8711 11.4906 10.6582 11.6289C10.4454 11.767 10.1772 11.7886 9.94531 11.6855L8.01758 10.8291L6.33496 11.6709C6.12403 11.7762 5.87597 11.7762 5.66504 11.6709L3.98145 10.8291L2.05469 11.6855C1.82282 11.7886 1.55462 11.767 1.3418 11.6289C1.12892 11.4906 1 11.2539 1 11V0.75C1 0.335786 1.33579 0 1.75 0H10.25ZM2.5 9.8457L3.69531 9.31445C3.89997 9.22349 4.1346 9.22906 4.33496 9.3291L6 10.1611L7.66504 9.3291L7.74121 9.2959C7.92323 9.22899 8.1255 9.23481 8.30469 9.31445L9.5 9.8457V1.5H2.5V9.8457ZM6 5.5C6.41421 5.5 6.75 5.83579 6.75 6.25C6.75 6.66421 6.41421 7 6 7H4.5C4.08579 7 3.75 6.66421 3.75 6.25C3.75 5.83579 4.08579 5.5 4.5 5.5H6ZM7.5 2.75C7.91421 2.75 8.25 3.08579 8.25 3.5C8.25 3.91421 7.91421 4.25 7.5 4.25H4.5C4.08579 4.25 3.75 3.91421 3.75 3.5C3.75 3.08579 4.08579 2.75 4.5 2.75H7.5Z"
    fill="currentColor"
  />
</svg>

<svg xmlns="http://www.w3.org/2000/svg" width="12" height="12" fill="none" data-fui-icon="true" viewBox="0 0 12 12"><path fill="currentColor" d="M10.25 0a.75.75 0 0 1 .75.75V11a.75.75 0 0 1-1.055.685l-1.927-.856-1.683.842a.75.75 0 0 1-.67 0l-1.684-.842-1.926.856A.75.75 0 0 1 1 11V.75A.75.75 0 0 1 1.75 0zM2.5 9.846l1.195-.532a.75.75 0 0 1 .64.015L6 10.161l1.665-.832.076-.033a.75.75 0 0 1 .564.018l1.195.532V1.5h-7zM6 5.5A.75.75 0 0 1 6 7H4.5a.75.75 0 0 1 0-1.5zm1.5-2.75a.75.75 0 0 1 0 1.5h-3a.75.75 0 0 1 0-1.5z"/></svg>
